X:126
T:Lord Franklin
M:3/2
L:1/8
K:G
z2DD|G2(AB) B4A2G2|E2E E-E6 EE|
w:It was home-ward_ bound one night on the deep_Swing-ing
A2B2(c B3)A2G2|F3D D8|z8(d3c)|
w:in my hammock_ I_ fell a-sleep I_
B3A G4A2B2|c2d2d4z2D2|
w:dreamed a dream, and I thought it true con-
B2B2c2A2F2A2|G G3G4||
w:cern-ing Frank-lin and his gal-lant crew